X: 18896
T: Inagh Valley
R: polka
M: 2/4
K: Cdorian
||F3G/B/|c4-|c4|e3f/g/|f3c|d4-|d4-|d4|edBF|G4-|G4-|G4|B3A|F4-|F4-|F4|
F3G/B/|c4-|c3c/d/|e3f/g/|f3c|d4-|d4-|d4|edBF|G4-|G4-|G4|c3B/A/|F4-|F4-|F4|z4|
A4-|A3G|F4|F3D|G4-|G4-|G4|F3G/B/|d4-|d4-|d2dc|B3F|G4|G4-|G4|
{BAG}A4-|A2c/B/A/G/|A3B|AGFD|G4-|G4-|G4|F3G/B/|
c4-|c4-|c2d2|f3d|c4-|c4-|c4||

